X: 208
T: the Miller of the Dee
C: music: Old English Air
C: words: Charles Kingsley (attr.)
N: Others attribute this poem to Isaac Bickerstaffe. 
N: Charles Kingley wrote another Miller of the Dee poem that may be confused with this, and also The Sands of Dee.
Q: "Quickly."
%R: jig
B: "The Everyday Song Book", 1927
F: http://www.library.pitt.edu/happybirthday/pdf/The_Everyday_Song_Book.pdf
Z: 2016 John Chambers <jc:trillian.mit.edu>
M: 6/8
L: 1/8
K: Am
% - - - - - - - - - - - - - - - - - - - - - - - - - - - - -
E | A- A A ^G2 E | c2 c B2 d | (c>B) A (B>A) ^G | A3- A2 ||
w: 1.~There was* a jol-ly mil-ler once Lived on* the Riv-*er Dee;*
w: 2.~I live by my mill, she is to me Like pa-*rent, child,* and wife;*
%
E | A2 A ^G2 E | c2- c B2 d | (c>B) A (B> A) ^G | A3- A2 ||
w: He worked and sang from morn till night, No lark* more blithe* than he.*
w: I would not change my sta-*tion For an-*y oth-er in life.*
%
(c/d/) | e2 e e2 c | d2 d d2 B | (c>B) A d2 c | (c3 B2) ||
w: And* this the bur-den of his song For-ev-*er used to be:*
w: No* Law-yer, sur-geon, of doc-tor E'er had* a groat from me;*
%
E | A2 A ^G> ^F E | c2 c B2 (e/d/) | c> B A (B>A) ^G | A3- A2 |]
w: I care for no-bod-y, no, not I, and* no-bod-y cares* for me.*
% - - - - - - - - - - - - - - - - - - - - - - - - - - - - -
